X:0578
T:Lord Bernard's March.
M:C
L:1/8
Q:1/2=66
I: :: ::
Z:Jack Campin * www.campin.me.uk * 2009
K:C
 g/f/e/d/ |c2c>c c2 f/e/d/c/ |d2d>d             d2e>f|g>eg>e       gfed |c2 c>c c2
(g/f/e/d/)|c2c>c c2(g/f/e/d/)|Bcde             ^fgac'|bg ^f/e/d/c/ B2TA2|G2 G>G G2::
 G/A/B/c/ |dBfd  ecge        |dBfd              ecge |a3g          fedc |d2 d>d d2
 g>f      |e2g>e d2 g>f      |e/g/e/g/ f/e/d/c/ d2
 e>f      |gecG  AdcB        |cdef              gabc'|gecG         AdcB |c2 c>c c2:|

